X: 1
T: Drumtochty Glen
C: Nan Main
R: strathspey
K: F
M: 4/4
L: 1/16
C2 |\
"F"F3G Ad3 "Dm"c2A2 G2F2 | "Gm"G3A BAGF D4 "C7"C3C |\
"Gm"Dd3 "C7"c2E2 "Dm"Ff3 "F"c3c | "F"d2c2 "Dm"f2C2 "Bb"D4 "F"F4 |
"Dm"A2d2 "A"^c2a2 "Dm"fgfe d2B2 | "Dm"AD3 A2F2 "A7"E4 A3A |\
"Gm"B3A "C7"G2c2 "F"ABAG F3c | "F"d2c2 "Dm"f2C2 "Bb"D4 "F"F4 |]
[|\
"F"Ac3 f3F "Gm"((3B2c2d2) g3a | "Gm"baga "G7"gagf "C"ec3 "C7"c3e |\
"F"f3d c2A2 "C7"B2g2 "F"a3f | "C7"((3G2B2e2) ((3B2e2a2) "F"fF3 F3E |
"Bb"D2B2 "G7"g3F "C"E2c2 "A7"a3g | "Dm"fedc "Gm"BAGF "C7"GC3 C3E |\
"F"F3G Af3 c2A2 G2F2 | "Gm"G3A BAGF "Bb"D4 "F"F2 |]
